-----BEGIN PGP PUBLIC KEY BLOCK-----

xsBNBGq0Hc4BCADuIIl6YmUi73u2/sT3j81xrUtPY2+anMgqZBc02uiAEbCc6wl4
jsAfLyaURYzHVfe+bT4eQ9XjW7y4bIbupEGkyYy9vYSEGwmiaySVed+Crvi14DSQ
XQLsVGnSC6wplVXS0eL75iD58/E6+gr6SaeIvkNQBQxAMpui7MQprHaV3C7MfnpY
PkIZhZHqYwKgiPR2N12SuPXj7nChCVw2UItgEJHNbsrCL/rFIHmGju+8mH7QgoxA
OFRgLsQQDhRd/7yQ1w9knIWIxFgDEv4ObnkwP6HnEVpEA3jQmuiJHU3pdoFZXlTw
5hnll9abKj82C+RxoZmOq2kNavk3mLwQuSudABEBAAHNJUdyb3VwX0xJVkVURVNU
IDxsaXZldGVzdEBleGFtcGxlLmNvbT7CwIIEEwEIACwFAmq0Hc4CGwwCCwkCFQgC
FgECHgEWIQTTheNc3vgmmKCKuSnc3Uc4T15sGgAKCRDc3Uc4T15sGgobB/9kMGHF
9KeFXHEQ7Ljvak8+VSAzX5gW74TIFbRCn4EznBpvdIUHaHWW2ai/Hw3yFPVxb0LJ
K4I1o5n7rC+E2eJQCIX2Pa+reL4dFxv8wgcTtOwY+URBY2OmoSJIlqMCJRgAdxwI
9KXeRTKJaKYvPphjm88hhgXlTK7gLynvhdkZRHw3zL9gju01BLf5FDGeltbOgTbk
JVmvVnCEWW/BqEwR0Z4UNprNgY+SS+QY5dwiWxgo0OIOMdh4t+wyzmwAbS0fPq+N
ZVAxoVzWG33maetKPCr6uyimXpMK6kmk/xA1u14RA2uCqO3YAp98Eb/ntJoF//82
rLWVzd0FHyOm+rDI
=H6Am
-----END PGP PUBLIC KEY BLOCK-----
